X:210
T: Kenmare
S: "Johnny O'Leary of Sliabh Luachra" (#297)
Z: B.Black
L: 1/8
M: 2/4
Q: 270
R: polka
K: G
D|GF/G/ AB|c/B/A dB|GB/G/ AB|c/B/A FD|
G2 AB|c/B/A de|fd c/B/A|1 B/A/G G :|2\
BG G2||
gf/g/ ag|fd de|fd de|fd ef|
gf/g/ ag|fd de|fe/d/ cA|AG G2 :|
